icons/SkipBackward_filled.svg

<svg width="24" height="24" viewBox="0 0 24 24" fill="none" xmlns="http://www.w3.org/2000/svg">
<path fill-rule="evenodd" clip-rule="evenodd" d="M8.5,4.25c0.9665,0 1.75,0.7835 1.75,1.75v5.2619c0.0532,-0.0725 0.1153,-0.1405 0.1862,-0.2026l6.7407,-5.89808c0.8082,-0.7072 2.0731,-0.13322 2.0731,0.94073v11.79625c0,1.0739 -1.2649,1.6479 -2.0731,0.9407l-6.7407,-5.8981c-0.0709,-0.062 -0.133,-0.1301 -0.1862,-0.2026v5.2618c0,0.9665 -0.7835,1.75 -1.75,1.75h-2c-0.9665,0 -1.75,-0.7835 -1.75,-1.75v-12c0,-0.9665 0.7835,-1.75 1.75,-1.75z" fill="#002B51"/>
</svg>

<svg width="24" height="24" viewBox="0 0 24 24" fill="none" xmlns="http://www.w3.org/2000/svg">
<path fill-rule="evenodd" clip-rule="evenodd" d="M8.5 4.25C9.4665 4.25 10.25 5.0335 10.25 6V11.2619C10.3032 11.1894 10.3653 11.1214 10.4362 11.0593L17.1769 5.16122C17.9851 4.45402 19.25 5.028 19.25 6.10195V17.8982C19.25 18.9721 17.9851 19.5461 17.1769 18.8389L10.4362 12.9408C10.3653 12.8788 10.3032 12.8107 10.25 12.7382V18C10.25 18.9665 9.4665 19.75 8.5 19.75H6.5C5.5335 19.75 4.75 18.9665 4.75 18V6C4.75 5.0335 5.5335 4.25 6.5 4.25H8.5Z" fill="#002B51"/>
</svg>
